!!!COM: Robert Schumann
!!!CNT: Deutscher
!!!TXO: Deutsche 
!!!OTL: Aus alten Ma2rchen
!!!OPR: Dichterliebe
!!!OPS: Opus 48
!!!ONM: No. 15
!!!LYR: Heine
!!!ENC: Brian Bice
!!!YOR: Sa2mtliche Lieder, vol. 1, C.F. Peters
!!!ODT: 1840/
!!NB: Vocal melody and text only encoded.
**kern	**silbe
*clefG2	*
*k[f#c#g#d#]	*
*M6/8	*
=8	=8
4r	.
8r	.
4r	.
{8b	{Aus
=9	=9
4cc#	al-
8dd#	-ten
4ee	Ma2r-
8b	-chen
=10	=10
4.cc#	winkt
4b	es
8b	her-
=11	=11
4a	-vor
8a	mit
4b	wei-
8b	-sser
=12	=12
4.g#}	Hand,}
4r	.
{8g#	{da
=13	=13
(4g#	singt
8b)	|
8b	es
8b	und
8b	da
=14	=14
(4b	klingt
8ee)	|
4ee	es
8ee	von
=15	=15
4dd#	ei-
8ee	-nem
4ff#	Zau-
8f#	-ber-
=16	=16
4b}	-land;}
8r	.
4r	.
{8b	{wo
=17	=17
4b	bun-
8b	-te
4cc#	Blu-
8cc#	-men
=18	=18
4.cc#	blu2-
4ff#	-hen
8b	im
=19	=19
4b	gold'-
8b	-nen
4cc#	A-
8cc#	-bend-
=20	=20
4.b}	-licht,}
4r	.
{8b	{und
=21	=21
4b	lieb-
8b	-lich
4cc#	duf-
8cc#	-tend
=22	=22
4.cc#	glu2-
4ff#	-hen,
8b	mit
=23	=23
4b	bra2ut-
8b	-lich-
4cc#	-em
8cc#	Ge-
=24	=24
4.b}	-sicht;}
4r	.
8r	.
=28	=28
4r	.
8r	.
4r	.
{8b	{und
=29	=29
4a	gru2-
8b	-ne
4ccn	Ba2u-
8ee	-me
=30	=30
4.ddn	sin-
4b	-gen
8b	ur-
=31	=31
4a	-al-
8b	-te
4ccn	Me-
8ee	-lo-
=32	=32
4.ddn}	-dei'n,}
4r	.
{8dd#	{die
=33	=33
4cc#	Lu2f-
8dd#	-te
4ee	heim-
8gg#	-lich
=34	=34
4.ff#	klin-
4dd#	-gen,
8dd#	und
=35	=35
4cc#	Vo2-
8dd#	-gel
4ee	schmet-
8gg#	-tern
=36	=36
2.ff#}	drein;}
=40	=40
4r	.
8r	.
4r	.
{8b	{und
=41	=41
4b	Ne-
8b	-bel-
4b	-bil-
8b	-der
=42	=42
4.e	stei-
4b	-gen
8B	wohl
=43	=43
4c#	aus
8c#	der
4f#	Erd'
8f#	her-
=44	=44
4.B}	-vor,}
4r	.
{8d#	{und
=45	=45
4d#	tan-
8f#	-zen
4f#	luft'-
8b	-gen
=46	=46
(4b	Rei-
8dd#)	|
4dd#	-gen,
8dd#	im
=47	=47
4cc#	wun-
8dd#	-der-
4cc#	-li-
8cc#	-chen
=48	=48
4.f#}	Chor;}
4r	.
{8f#	{und
=49	=49
4f#	blau-
8f#	-e
4g#	Fun-
8g#	-ken
=50	=50
4.g#	bren-
4cc#	-nen
8f#	an
=51	=51
4f#	je-
8f#	-dem
4g#	Blatt
8g#	und
=52	=52
[4.f#	Reis,
4f#]}	|}
{8f#	{und
=53	=53
4f#	ro-
8f#	-te
4g#	Lich-
8g#	-ter
=54	=54
4.g#	ren-
4cc#	-nen
8f#	im
=55	=55
4f#	ir-
8f#	-ren,
4g#	wir-
8g#	-ren
=56	=56
[4.f#	Kreis;
4f#]}	|}
{8f#	{und
=57	=57
4f#	lau-
8b#	-te
4dd#	Quel-
8ff#	-len
=58	=58
4.ff#	bre-
4g#	-chen
8g#	aus
=59	=59
4g#	wil-
8b#	-dem
4dd#	Mar-
8g#	-mor-
=60	=60
4.ee}	-stein,}
4r	.
{8g#	{und
=61	=61
4g#	selt-
8cc##	-sam
4ee#	in
8g#	den
=62	=62
4.gg#	Ba2-
4a#	-chen
8a#	strahlt
=63	=63
4a#	fort
8cc##	der
4ee#	Wi-
8a#	-der-
=64	=64
[4.ff#	-schein.
4ff#]}	|}
8r	.
=65	=65
{[2.ff#	{Ach!
=66	=66
4.ff#]	|
4r	.
8r	.
=67	=67
2.b}	Ach!}
=68	=68
4r	.
8r	.
4r	.
{8b	{Ach,
=69	=69
4.cc#	ko2nnt'
4.dd#	ich
=70	=70
[4.ee	dort-
4ee]	|
8b	-hin
=71	=71
2.cc#	kom-
=72	=72
[4.b	-men,
4b]}	|}
{8b	{und
=73	=73
[4.a	dort
4a]	|
8a	mien
=74	=74
[4.b	Herz
4b]	|
8b	er-
=75	=75
2.g#}	-freu'n,}
=76	=76
4r	.
8r	.
4r	.
{8b	{und
=77	=77
4.cc#	al-
4.dd#	-ler
=78	=78
[4.ee	Qual
4ee]	|
8b	ent-
=79	=79
2.cc#	-nom-
=80	=80
[4.b	-men,
4b]}	|}
{8b	{und
=81	=81
[4.a	frei
4a]	|
8a	und
=82	=82
[4.b	se-
4b]	|
8b	-lig
=83	=83
2.g#}	sein!}
=84	=84
4r	.
8r	.
{4.g#	{Ach!
=85	=85
4.f#	je-
4.g#	-nes
=86	=86
[4.a	Land
4a]	|
8cc#	der
=87	=87
2.b	Won-
=88	=88
4.g#}	-ne,}
4r	.
{8g#	{das
=89	=89
4.f#	seh'
4.g#	ich
=90	=90
[4.a	oft
4a]	|
8cc#	im
=91	=91
[2.b	Traum,
=92	=92
4b]}	|}
8r	.
4r	.
{8cc#	{doch
=93	=93
[4.b	kommt
4b]	|
8cc#	die
=94	=94
(4.ddn	Mor-
4ff#)	|
8ee	-gen-
=95	=95
4.ee	-son-
8ee}	-ne,}
8r	.
8r	.
=96	=96
4r	.
8r	.
4r	.
{8cc#	{zer-
=97	=97
[4.cc#	-fliesst's
4cc#]	|
8cc#	wie
=98	=98
[4.f#	ei-
4f#]	|
8f#	-tel
=99	=99
[2.b	Schaum,
=100	=100
4.b_	|
4b]}	|}
{8b	{zer-
=101	=101
[4.b	-fliesst's
4b]	|
8b	wie
=102	=102
([4.b	ei-
8b]	|
8a)	|
8f#	-tel
=103	=103
2.e}	Schaum.}
*-	*-
